Numix/16/status/indicator-keyboard-Sv-4.svg

<?xml version="1.0" encoding="UTF-8" standalone="no"?>
<svg
   xmlns:dc="http://purl.org/dc/elements/1.1/"
   xmlns:cc="http://creativecommons.org/ns#"
   xmlns:rdf="http://www.w3.org/1999/02/22-rdf-syntax-ns#"
   xmlns:svg="http://www.w3.org/2000/svg"
   xmlns="http://www.w3.org/2000/svg"
   xmlns:sodipodi="http://sodipodi.sourceforge.net/DTD/sodipodi-0.dtd"
   xmlns:inkscape="http://www.inkscape.org/namespaces/inkscape"
   viewBox="0 0 16 16"
   id="svg2"
   version="1.1"
   inkscape:version="0.91 r13725"
   sodipodi:docname="indicator-keyboard-Sv-4.svg">
  <metadata
     id="metadata14">
    <rdf:RDF>
      <cc:Work
         rdf:about="">
        <dc:format>image/svg+xml</dc:format>
        <dc:type
           rdf:resource="http://purl.org/dc/dcmitype/StillImage" />
      </cc:Work>
    </rdf:RDF>
  </metadata>
  <defs
     id="defs12" />
  <sodipodi:namedview
     pagecolor="#ffffff"
     bordercolor="#666666"
     borderopacity="1"
     objecttolerance="10"
     gridtolerance="10"
     guidetolerance="10"
     inkscape:pageopacity="0"
     inkscape:pageshadow="2"
     inkscape:window-width="640"
     inkscape:window-height="480"
     id="namedview10"
     showgrid="false"
     inkscape:zoom="14.75"
     inkscape:cx="8"
     inkscape:cy="8"
     inkscape:window-x="65"
     inkscape:window-y="24"
     inkscape:window-maximized="0"
     inkscape:current-layer="svg2" />
  <path
     style="fill:#ececec;fill-opacity:1"
     d="M 1.5996094 0 C 0.71320937 2.9605947e-16 0 0.71320937 0 1.5996094 L 0 14.400391 C 2.9605947e-16 15.286791 0.71320937 16 1.5996094 16 L 14.400391 16 C 15.286791 16 16 15.286791 16 14.400391 L 16 1.5996094 C 16 0.71320937 15.286791 0 14.400391 0 L 1.5996094 0 z M 4.3886719 4.7246094 C 4.5566719 4.7246094 4.7227656 4.7357656 4.8847656 4.7597656 C 5.0467656 4.7837656 5.1959844 4.817375 5.3339844 4.859375 C 5.4779844 4.895375 5.6067031 4.936375 5.7207031 4.984375 C 5.8407031 5.032375 5.9395781 5.0846719 6.0175781 5.1386719 L 5.8027344 5.6503906 C 5.6287344 5.5303906 5.4141094 5.4352813 5.1621094 5.3632812 C 4.9161094 5.2912813 4.6493281 5.2558594 4.3613281 5.2558594 C 4.1633281 5.2558594 3.9805 5.2763594 3.8125 5.3183594 C 3.6505 5.3543594 3.510625 5.4178125 3.390625 5.5078125 C 3.270625 5.5918125 3.1735625 5.6980781 3.1015625 5.8300781 C 3.0355625 5.9620781 3.0039063 6.1225938 3.0039062 6.3085938 C 3.0039062 6.5005938 3.0393281 6.6629219 3.1113281 6.7949219 C 3.1833281 6.9269219 3.2822031 7.0407187 3.4082031 7.1367188 C 3.5402031 7.2327187 3.6931875 7.3184844 3.8671875 7.3964844 C 4.0411875 7.4744844 4.2295937 7.556625 4.4335938 7.640625 C 4.6795938 7.742625 4.9109531 7.8433125 5.1269531 7.9453125 C 5.3489531 8.0473125 5.541125 8.1686406 5.703125 8.3066406 C 5.865125 8.4446406 5.9938437 8.6125469 6.0898438 8.8105469 C 6.1858438 9.0085469 6.234375 9.2510625 6.234375 9.5390625 C 6.234375 10.103063 6.036625 10.526594 5.640625 10.808594 C 5.250625 11.090594 4.718875 11.230469 4.046875 11.230469 C 3.806875 11.230469 3.588625 11.215547 3.390625 11.185547 C 3.192625 11.155547 3.015375 11.120125 2.859375 11.078125 C 2.703375 11.030125 2.5708906 10.981594 2.4628906 10.933594 C 2.3548906 10.885594 2.2709375 10.844594 2.2109375 10.808594 L 2.4082031 10.277344 C 2.4682031 10.313344 2.5503437 10.354344 2.6523438 10.402344 C 2.7543437 10.450344 2.8737188 10.498875 3.0117188 10.546875 C 3.1497187 10.588875 3.3064688 10.624297 3.4804688 10.654297 C 3.6544687 10.684297 3.8466406 10.699219 4.0566406 10.699219 C 4.5426406 10.699219 4.9194531 10.613453 5.1894531 10.439453 C 5.4594531 10.259453 5.5957031 9.970219 5.5957031 9.5742188 C 5.5957031 9.3462187 5.5509375 9.1578125 5.4609375 9.0078125 C 5.3769375 8.8518125 5.2611875 8.7230938 5.1171875 8.6210938 C 4.9731875 8.5130937 4.8090469 8.4235625 4.6230469 8.3515625 C 4.4370469 8.2735625 4.2411094 8.1914219 4.0371094 8.1074219 C 3.7791094 8.0054219 3.5497031 7.9009687 3.3457031 7.7929688 C 3.1417031 7.6849688 2.9662656 7.5655937 2.8222656 7.4335938 C 2.6782656 7.2955937 2.5682344 7.1388438 2.4902344 6.9648438 C 2.4182344 6.7908437 2.3828125 6.5875156 2.3828125 6.3535156 C 2.3828125 5.8195156 2.5581094 5.4146719 2.9121094 5.1386719 C 3.2661094 4.8626719 3.7586719 4.7246094 4.3886719 4.7246094 z M 6.6386719 6.4433594 L 7.2597656 6.4433594 C 7.3317656 6.7613594 7.4175312 7.10275 7.5195312 7.46875 C 7.6275312 7.82875 7.7413281 8.1888281 7.8613281 8.5488281 C 7.9873281 8.9028281 8.1160469 9.2479844 8.2480469 9.5839844 C 8.3800469 9.9139846 8.5107187 10.208797 8.6367188 10.466797 C 8.7627188 10.208797 8.8914375 9.9139846 9.0234375 9.5839844 C 9.1554375 9.2479844 9.2803906 8.9028281 9.4003906 8.5488281 C 9.5263906 8.1888281 9.6401875 7.82875 9.7421875 7.46875 C 9.8501875 7.10275 9.9416719 6.7613594 10.013672 6.4433594 L 10.597656 6.4433594 C 10.489656 6.8693594 10.370281 7.289125 10.238281 7.703125 C 10.106281 8.117125 9.9644531 8.5219688 9.8144531 8.9179688 C 9.6704531 9.3139687 9.5174688 9.6945467 9.3554688 10.060547 C 9.1994688 10.426547 9.0464844 10.771703 8.8964844 11.095703 L 8.3378906 11.095703 C 8.1818906 10.771703 8.0270937 10.426547 7.8710938 10.060547 C 7.7150938 9.6945467 7.5621094 9.3139687 7.4121094 8.9179688 C 7.2681094 8.5219688 7.1300469 8.117125 6.9980469 7.703125 C 6.8660469 7.289125 6.7466719 6.8693594 6.6386719 6.4433594 z M 12.888672 8.8417969 L 13.285156 8.8417969 L 13.285156 11.486328 L 13.789062 11.486328 L 13.789062 11.796875 L 13.285156 11.796875 L 13.285156 12.896484 L 12.912109 12.896484 L 12.912109 11.796875 L 11.074219 11.796875 L 11.074219 11.5625 C 11.144419 11.3753 11.242387 11.163687 11.367188 10.929688 C 11.495887 10.695688 11.640881 10.456637 11.800781 10.210938 C 11.960681 9.9652374 12.133112 9.7261874 12.320312 9.4921875 C 12.507512 9.2542875 12.697572 9.0367969 12.888672 8.8417969 z M 12.912109 9.2695312 C 12.775609 9.4099312 12.636494 9.5706063 12.496094 9.7539062 C 12.355694 9.9372063 12.220497 10.129225 12.091797 10.328125 C 11.966997 10.523125 11.851388 10.719069 11.742188 10.917969 C 11.632988 11.116869 11.540897 11.306928 11.466797 11.486328 L 12.912109 11.486328 L 12.912109 9.2695312 z "
     id="path4" />
</svg>

<svg xmlns="http://www.w3.org/2000/svg" viewBox="0 0 16 16">
 <path d="m 1.6 0 c -0.886 0 -1.6 0.713 -1.6 1.6 l 0 12.801 c 0 0.886 0.713 1.6 1.6 1.6 l 12.801 0 c 0.886 0 1.6 -0.713 1.6 -1.6 l 0 -12.801 c 0 -0.886 -0.713 -1.6 -1.6 -1.6 l -12.801 0 z m 2.789 4.725 c 0.168 0 0.334 0.011 0.496 0.035 c 0.162 0.024 0.311 0.058 0.449 0.1 c 0.144 0.036 0.273 0.077 0.387 0.125 c 0.12 0.048 0.219 0.1 0.297 0.154 l -0.215 0.512 c -0.174 -0.12 -0.389 -0.215 -0.641 -0.287 c -0.246 -0.072 -0.513 -0.107 -0.801 -0.107 c -0.198 0 -0.381 0.02 -0.549 0.063 c -0.162 0.036 -0.302 0.099 -0.422 0.189 c -0.12 0.084 -0.217 0.19 -0.289 0.322 c -0.066 0.132 -0.098 0.293 -0.098 0.479 c 0 0.192 0.035 0.354 0.107 0.486 c 0.072 0.132 0.171 0.246 0.297 0.342 c 0.132 0.096 0.285 0.182 0.459 0.26 c 0.174 0.078 0.362 0.16 0.566 0.244 c 0.246 0.102 0.477 0.203 0.693 0.305 c 0.222 0.102 0.414 0.223 0.576 0.361 c 0.162 0.138 0.291 0.306 0.387 0.504 c 0.096 0.198 0.145 0.441 0.145 0.729 c 0 0.564 -0.198 0.988 -0.594 1.27 c -0.39 0.282 -0.922 0.422 -1.594 0.422 c -0.24 0 -0.458 -0.015 -0.656 -0.045 c -0.198 -0.03 -0.375 -0.065 -0.531 -0.107 c -0.156 -0.048 -0.288 -0.097 -0.396 -0.145 c -0.108 -0.048 -0.192 -0.089 -0.252 -0.125 l 0.197 -0.531 c 0.06 0.036 0.142 0.077 0.244 0.125 c 0.102 0.048 0.221 0.097 0.359 0.145 c 0.138 0.042 0.295 0.077 0.469 0.107 c 0.174 0.03 0.366 0.045 0.576 0.045 c 0.486 0 0.863 -0.086 1.133 -0.26 c 0.27 -0.18 0.406 -0.469 0.406 -0.865 c 0 -0.228 -0.045 -0.416 -0.135 -0.566 c -0.084 -0.156 -0.2 -0.285 -0.344 -0.387 c -0.144 -0.108 -0.308 -0.198 -0.494 -0.27 c -0.186 -0.078 -0.382 -0.16 -0.586 -0.244 c -0.258 -0.102 -0.487 -0.206 -0.691 -0.314 c -0.204 -0.108 -0.379 -0.227 -0.523 -0.359 c -0.144 -0.138 -0.254 -0.295 -0.332 -0.469 c -0.072 -0.174 -0.107 -0.377 -0.107 -0.611 c 0 -0.534 0.175 -0.939 0.529 -1.215 c 0.354 -0.276 0.847 -0.414 1.477 -0.414 z m 2.25 1.719 l 0.621 0 c 0.072 0.318 0.158 0.659 0.26 1.025 c 0.108 0.36 0.222 0.72 0.342 1.08 c 0.126 0.354 0.255 0.699 0.387 1.035 c 0.132 0.33 0.263 0.625 0.389 0.883 c 0.126 -0.258 0.255 -0.553 0.387 -0.883 c 0.132 -0.336 0.257 -0.681 0.377 -1.035 c 0.126 -0.36 0.24 -0.72 0.342 -1.08 c 0.108 -0.366 0.199 -0.707 0.271 -1.025 l 0.584 0 c -0.108 0.426 -0.227 0.846 -0.359 1.26 c -0.132 0.414 -0.274 0.819 -0.424 1.215 c -0.144 0.396 -0.297 0.777 -0.459 1.143 c -0.156 0.366 -0.309 0.711 -0.459 1.035 l -0.559 0 c -0.156 -0.324 -0.311 -0.669 -0.467 -1.035 c -0.156 -0.366 -0.309 -0.747 -0.459 -1.143 c -0.144 -0.396 -0.282 -0.801 -0.414 -1.215 c -0.132 -0.414 -0.251 -0.834 -0.359 -1.26 z m 6.25 2.398 l 0.396 0 l 0 2.645 l 0.504 0 l 0 0.311 l -0.504 0 l 0 1.1 l -0.373 0 l 0 -1.1 l -1.838 0 l 0 -0.234 c 0.07 -0.187 0.168 -0.399 0.293 -0.633 c 0.129 -0.234 0.274 -0.473 0.434 -0.719 c 0.16 -0.246 0.332 -0.485 0.52 -0.719 c 0.187 -0.238 0.377 -0.455 0.568 -0.65 z m 0.023 0.428 c -0.136 0.14 -0.276 0.301 -0.416 0.484 c -0.14 0.183 -0.276 0.375 -0.404 0.574 c -0.125 0.195 -0.24 0.391 -0.35 0.59 c -0.109 0.199 -0.201 0.389 -0.275 0.568 l 1.445 0 l 0 -2.217 z" style="fill:#ececec;fill-opacity:1"/>
</svg>
